X:1
T:James Gibb editions
T:Laetatus sum - Isaac
T:#
%%score [ 1 2 3 4 ]
L:1/8
Q:1/4=100
M:2/2
K:C
V:1 treble nm="Alto" snm="A"
V:2 treble-8 nm="Tenor I" snm="T I"
V:3 treble-8 nm="Tenor II" snm="T II"
V:4 bass nm="Bass" snm="B"
V:1
"^Laetatus sum""^Heinrich Isaac\n(c.1450-1517)""^Psalm 121:1-2 (Vulgate)" z8 | z4 D4 | F4 (G4 | %3
w: |Al-|le- lu\-|
 F2 _B3 A A2- | A2 G2 A4) || D8 | (F4 D4 | C4 F4 | G4 F2 A2- | A2 G2 A2 _B2- | B2 A4) G2 | A4 z4 | %12
w: |* * ia.|Lae-|ta\- *||||* * tus|sum|
 z2 A2 A2 A2 | (A2 B2) (c3 B | A3 G F4 | E3 F G2 A2 | G2 A2 F2 G2- | GF F4 E2) | F8 | z8 | z8 | %21
w: in his quae|di\- * cta *|||||sunt:|||
 z8 | z2 (D3 E F2- | F2 E2) (F4 | D4 A4 | G4 F4 | G3 A B2 c2- | cB A4 G2) | A4 z2 (F2- | %29
w: |in * *|* * do\-|||||mum, do\-|
 F2 G2 E2 D2 | E4 C4 | E4 F2 G2- | G2 FE D2 F2- | FE D4 C2) | D8- | D8 | z8 | z8 | (D4 A4 | %39
w: |||||mum.||||Stan\- *|
 c4) (A4 | c4) A4 | (A4 G4 | A4 z2 (A2 | _B2 A2) B3 A | G3 F E3 F | G2) (A4 ^G2) | A8 | z4 (E3 F | %48
w: * tes|* e-|rant *|* pe\-|* * des *||* no\- *|stri|in *|
 G2) A4 (^G2 | A3 B c4 | B4 z2 c2- | c2 B2 A2 c2- | cBAG F4- | F4 G2 A2- | AGFE D2 F2 | %55
w: * a- tri\-|||||||
 FE D4 ^C2) | D8 | z2 D2 (D3 E | F2 G2 A2 _B2- | %59
w: |is,|Hie- ru\- *||
[Q:1/4=99] B[Q:1/4=98]A[Q:1/4=97] F2[Q:1/4=95] G2[Q:1/4=93] _B2- | %60
w: |
[Q:1/4=91] B2[Q:1/4=88] A4)[Q:1/4=85] G2 |[Q:1/4=85] A8- | A8 |] %63
w: * * sa-|lem.||
V:2
 d4 A4 | (B4 AGFE | D2 d4 c2 | d8- | d4) d4 || z8 | z8 | z8 | z8 | z4 z2 d2 | d2 (c2 d3 e) | %11
w: Al- le-|lu\- * * * *|||* ia.|||||In|his quae * *|
 (f4 fedc | d4 c4 | f4 e4 | A2 (d6 | G4) z4 | z4 z2 G2 | A2 _B2 c4 | A2 F2) (c4 | d4 e2 f2- | %20
w: di\- * * * *|||* cta||sunt:||* * mi\-||
 f2 ed e2 !tenuto!A2- | A2 d4 ^c2) | (d3 !courtesy!=c A3 B | c4 A4) | z8 | z4 z2 d2 | (e4 d2 c2 | %27
w: ||hi: * * *|||in|do\- * *|
 A4 _B4) | (A2 F2) (G2 A2- | A2 B2 c2) F2 | G4 z4 | z8 | z4 z2 (D2 | A2 B2 c3) d | (_B4 A4) | %35
w: |mum * Do\- *|* * * mi-|ni,||Do\-|* * * mi-|ni *|
 z4 z2 (d2- | de f2 d2 e2- | ed d4) ^c2 | (d2 A2 F2 D2 | E8) | z2 e4 c2- | c2 (f2 d2 e2) | %42
w: i\-||* * * bi-|bus. * * *||Stan- tes|* e\- * *|
 (f3 e/d/ c4) | z8 | z4 z2 e2- | e2 d2 e4 | (c3 d e2 f2 | d4 c4 | B2) A2 B4 | A4 z4 | z8 | z8 | %52
w: rant * * *||pe\-|* des no-|stri * * *||* in *||||
 z8 | z4 z2 (e2- | edcB A3 G | A2 _B2 A3 G | F2 D2 A4 | z2 A4 _B2 | A2 G2 F2 G2 | _B2 A2 G2 D2) | %60
w: |a\-|||* tri- is,|Hie- ru\-|||
 d8 | d8- | d8 |] %63
w: sa-|lem.||
V:3
 D4 F4 | (G4 F2 _B2- | BA A4 G2 | A2 d3 c A2 | _B4) A4 || z8 | D8 | (F4 D4 | C4 F4 | G4 F2 G2- | %10
w: Al- le-|lu\- * *|||* ia.||Lae-|ta\- *|||
 G2 A2) _B4 | A8- | A8 | z4 z2 A2 | A2 A2 (A2 B2 | c2 BA G2 F2 | c4 A2 _B2) | (F4 G4) | F8 | z8 | %20
w: * * tus|sum||in|his quae di\- *|||cta *|sunt:||
 z8 | z8 | (D4 F4) | (G4 F4 | _B4 A2 d2- | d2 ^c2) d4 | z8 | z8 | (A3 B c2 d2- | d2 G2 A2 B2 | %30
w: ||in *|do\- *||* * mum|||Do\- * * *||
 c4 A4 | c3 B A2 G2 | c4 _B2 A2 | F2 G2) E4 | D4 z2 (D2- | DE F2 G2 _B2- | B2 F2 G2 _B2- | %37
w: |||* * mi-|ni i\-|||
 BA A4) G2 | A4 (D4 | A4 c4) | (A4 c4) | (A4 _B4) | A8 | d4 d4 | (d4 c4 | B2 A2 B4) | A8 | z8 | %48
w: * * * bi-|mus. Stan\-||tes *|e\- *|rant|pe- des|no\- *||stri||
 z8 | z2 (A3 B c2 | d4 e2 c2 | d4 c2 e2- | edcB A4) | z2 (A2 B2 c2- | cBAG F3 E | F2 G2) E4 | %56
w: |in * *||||a\- * *||* * tri-|
 D4 z2 D2 | (D3 E F2 G2 | A2 _B2 A2 d2- | d2 c2 d3 c | d2 A2) _B4 | A8- | A8 |] %63
w: is, Hie-|ru\- * * *|||* * sa-|lem.||
V:4
 D,8 | G,,4 (D,4- | D,4 E,4 | D,4 G,2 F,2 | G,4) D,4 || z8 | z8 | z8 | z8 | z8 | z8 | %11
w: Al-|le- lu\-|||* ia.|||||||
 z2 D,2 D,2 D,2 | (D,3 E, F,3 E, | D,4 C,4 | D,8 | (C,3 D, E,2 F,2 | C,2 F,4 E,2) | D,4 C,4) | z8 | %19
w: In his quae|di\- * * *|||cta * * *||sunt *||
 (F,4 G,2 A,2- | A,2 G,F, G,2 A,2 | D,4 E,4) | D,2 (F,3 E, D,2 | C,4) z2 (F,2 | G,4 F,2 D,2 | %25
w: mi\- * *|||hi: in * *|* do\-||
 E,4) D,4 | z8 | z8 | (F,4 E,2 D,2- | D,2 G,2) (C,2 D,2 | C,4) F,4 | z8 | z4 z2 D,2- | %33
w: * mum|||Do\- * *|* * mi\- *|* ni,||Do\-|
 D,2 G,,2 A,,4 | z2 (D,3 E,F,G,) | A,2 D,2 z2 (G,2- | G,2 A,2 _B,2 G,2- | G,D, F,2) E,4 | (D,8 | %39
w: * mi- ni,|Do\- * * *|mi- ni i\-||* * * bi-|mus.|
 A,,8- | A,,4) z2 A,2- | A,2 F,2 G,4 | F,4 z2 (A,2 | G,2) F,2 (G,2 D,2 | G,4 C,3 D, | E,2 F,2 E,4 | %46
w: |* Stan\-|* tes e-|rant pe\-|* des no\- *|||
 A,,3 B,, C,2 D,2 | B,,4) A,,4 | z8 | (A,8 | D,4 A,4 | G,4) z2 (C,2- | C,4 D,2 F,2- | %53
w: |* stri||in||* a\-||
 F,E,D,C, B,,2 A,,2- | A,,4 D,3 E, | D,2) G,,2 A,,4 | z2 D,3 E,F,G, | A,4 z4 | z4 z2 G,2 | %59
w: ||* tri- is|Hi- e- ru- sa-|lem,|Hie-|
 (G,2 A,2 _B,3 A, | G,2 F,2) G,4 | D,8- | D,8 |] %63
w: ru\- * * *|* * sa-|lem.||

